!!!OTL: ES STEHT EIN SCHLOSS IN OESTERREICH
!!!ARE: Europa, Mitteleuropa, Deutschland, Pommern, Fiddichow, Brusenfelde
!!!SCT: E0061F
!!!YEM: Copyright 1995, estate of Helmut Schaffrath.
**kern
*ICvox
*Ivox
*M3/4
*k[f#c#]
*D:
{8A
=1
8d
8f#
4a
8g
8c#
=2
8.e
16g
4g
8f#}
{8A
=3
8d
8f#
4a
8d
8f#
=4
4f#
4e
8r}
{8a
=5
8f#
8a
4dd
8cc#
8b
=6
8b
8a
4f#
8r}
{8dd
=7
8a
8f#
4g
8c#
8e
=8
4e
4d
8r}
==
!!!AGN: erzaehlendes Volks - Lied, Sage, Mord, Ballade ?
!!!ONB: ESAC (Essen Associative Code) Database: ERK1
!!!AMT: simple triple
!!!AIN: vox
!!!EED: Helmut Schaffrath
!!!EEV: 1.0
*-
